!!!ONB: MCCC : IJH0440_01 : Extracted Monophonic Melody
!!!COM: Haydn, Joseph
!!!OPR: String Quartet in E major
!!!OMV: 1
!!!SCT: Hob.III:59 ; Op.54 No.3
!!!ODT: 1788///
**kern
*thru
*k[f#c#g#d#]
*E:
*clefG
*M2/2
4ee
=2
4dd#
4b
4a
8f#
8d#
=3
4e
4d#
4e
4a
=4
2g#
4f#
4r
=5
2.r
4ee
=6
4dd#
4b
4a
8f#
8d#
=7
4e
4f#
4B
8c#
8d#
=8
4e
2.r
=9
2.r
4bb
=10
2aa
4gg#
4ddd
=11
4ccc#
4aa
4ff#
8dd#
8b
=12
4ee
4gg#
4bb
4ddd
=13
4ccc#
4aa
4ff#
8dd#
16cc#
16b
=14
4ee
4gg#
4bb
4ddd
=15
12bb#
12ccc#
12ccc#
12gg#
12aa
12aa
12ee#
12ff#
12ff#
12aa
12ff#
12dd#
=16
12ee
12b
12a
12g#
12f#
12e
12d#
12e
12g#
12b
12ee
12gg#
=17
12aa
12ff#
12ee
12dd#
12cc#
12b
12a#
12b
12ff#
12dd#
12a
12ff#
=18
12g#
12b
12a
12g#
12f#
12e
12d#
12e
12g#
12b
12ee
12gg#
=19
12aa
12ff#
12ee
12dd#
12cc#
12b
12a#
12b
12ff#
12dd#
12a
12ff#
=20
8a
8g#
8r
8gg#
8b
8a
8r
8aa
=21
8cc#
8b
8r
8bb
8dd
8cc#
8r
8ccc#
=22
4.ee
16ff#
16ee
4dd#
4r
=23
4r
4ff#
4ff#
4ff#
=24
8ff#
8ddd#
8ccc#
8bb
8aa#
8bb
8aa#
8bb
=25
4..ff#
16gg#
8.ff#
16gg#
8.ff#
16gg#
=26
8ff#
8ddd#
8ccc#
8bb
8aa#
8bb
8ff#
8aa
=27
2gg#
2bb#
=28
2.ccc#
4ddd#
=29
4eee
4ccc#
4gg#
4ccc#
=30
2bb
4aa#
4gg#
=31
2gg#
4ff#
4ee
=32
12dd#
12bb
12aa#
12gg#
12ff#
12ee
12dd#
12cc#
12b
12a#
12cc#
12ee
=33
4dd#
2.r
=34
12dd#
12bb
12aa#
12gg#
12ff#
12ee
12dd#
12cc#
12b
12a#
12b
12cc#
=35
12b
12dd#
12cc#
12b
12dd#
12cc#
12b
12a#
12g#
12f##
12g#
12a#
=36
12g#
12dd#
12cc#
12b
12a#
12g#
12f#
12e#
12g#
12b
12g#
12e#
=37
12e#
12f#
12a#
12e#
12f#
12b
12e#
12f#
12cc#
12e#
12f#
12dd#
=38
12f#
12ee
12ee
12ee
12ee
12ee
12f#
12dd#
12dd#
12dd#
12dd#
12dd#
=39
12g#
12gg#
12gg#
12gg#
12gg#
12gg#
12a#
12aa#
12aa#
12b
12bb
12bb
=40
12ff#
12ee#
12gg#
12ff#
12ee#
12gg#
12ff#
12ee#
12gg#
12ff#
12bb
12b
=41
1cc#
=42
1b[
=43
1b]
=44
1b#
=45
4cc#
4gg#
4ee
4cc#
=46
2b
8.cc#
16b
8.cc#
16dd#
=47
1b[
=48
1b]
=49
2.cc
4ccc
=50
4bb
4gg
4dd
4b
=51
4a
4f#
4d#
4aa
=52
4gg
4ee
4b
4g
=53
8e
8d#
8e
8f#
4g
8f#
8e
=54
4d#
4f#
4b
4a
=55
4g
4e
4cc
8e
8A#
=56
4B
4d#
4f#
8b
8a
=57
4g
4e
4c
8e
8A#
=58
4B
4b
2r
=59
2.r
4gg
=60
4ff#
4dd
4cc
8a
8f#
=61
4g
4f#
4g
4cc
=62
2b
4a
4r
=63
2.r
4gg
=64
4ff#
4dd
4cc
8a
8f#
=65
4g
4a
4d
8e
8f#
=66
1g[
=67
1g]
=68
1g#
=69
1a[
=70
1a]
=71
1a#
=72
12b
12cc#
12dd
12b
12ee#
12ff#
12b
12aa#
12bb
12b
12ddd
12bb
=73
12aa#
12bb
12ccc#
12ee
12gg
12ff#
12ee
12dd
12cc#
12b
12a#
12cc#
=74
12b
12cc#
12dd
12b
12ee#
12ff#
12b
12aa#
12bb
12b
12ddd
12bb
=75
12aa#
12bb
12ccc#
12ee
12gg
12ff#
12ee
12dd
12cc#
12b
12a#
12cc#
=76
12b
12cc#
12dd
12b
12ee#
12ff#
12b
12aa#
12bb
12b
12bb
12aa
=77
4gg
2.r
=78
12a
12b#
12cc#
12a
12dd#
12ee
12a
12gg#
12aa
12a
12ff#
12gg
=79
12ff#
12aa
12gg
12ff#
12ee
12dd
12cc#
12b
12a
12g
12f#
12e
=80
4d
2.r
=81
2.r
4aa
=82
4gg
4ee
4cc#
8g
8e
=83
4d
4e
4f#
4aa
=84
4gg
4ee
8cc#
8a
8g
8e
=85
1d
=86
1c#
=87
1B#
=88
4c#
2.r
=89
2.r
4ccc#
=90
4bb
4gg#
4ee#
8dd
8b
=91
4a
4e#
4f#
4ccc#
=92
4bb
4gg#
4ee#
8dd
8b
=93
4a
4e#
4f#
4cc#
=94
4b
4a
4g#
4b
=95
4a
4g#
4a
4cc
=96
4b
4a#
4b
4dd
=97
4cc#
4b#
4cc#
4ee
=98
4dd#
4cc##
4dd#
4gg#
=99
2gg#
2ff#[
=100
2ff#]
2ee[
=101
2ee]
2dd#[
=102
2dd#]
2cc#
=103
4b#
4g#
4f##
8e
8c#
=104
4B#
4g#
4f##
8e
8c#
=105
4B#
4g#
4f##
8e
8c#
=106
4B#
4g#
2r
=107
2.r
4ee
=108
4dd#
4b
4a
8f#
8d#
=109
4e
4d#
4e
4a
=110
2g#
4f#
4g#
=111
4a
4b
4cc#
4b
=112
1aa
=113
4gg#
4ff#
4ee
8ff#
8dd#
=114
4ee
2.r
=115
2.r
4bb
=116
2aa
4gg#
4ddd
=117
4ccc#
4aa
4ff#
8dd#
8b
=118
4ee
4gg#
4bb
4ddd
=119
4ccc#
4aa
4ff#
8dd#
16cc#
16b
=120
4ee
4gg#
4bb
4ddd
=121
12bb#
12ccc#
12ccc#
12gg#
12aa
12aa
12ee#
12ff#
12ff#
12aa
12ff#
12dd#
=122
12ee
12b
12a
12g#
12f#
12e
12d#
12e
12g#
12b
12ee
12gg#
=123
12aa
12ff#
12ee
12dd#
12cc#
12b
12a#
12b
12ff#
12dd#
12a
12ff#
=124
12g#
12b
12a
12g#
12f#
12e
12d#
12e
12g#
12b
12ee
12gg#
=125
12aa
12ff#
12ee
12dd#
12cc#
12b
12a#
12b
12ff#
12dd#
12a
12ff#
=126
8a
8g#
8r
8gg#
8b
8a
8r
8aa
=127
8cc#
8b
8r
8bb
8dd
8cc#
8r
8ccc#
=128
8ff#
8ee#
8r
4ddd
4ccc#
8bb[
=129
8bb]
8aa
8r
8ccc#
8r
8bb
8r
8aa[
=130
8aa]
4gg#
4ff#
4ee
8dd#[
=131
8dd#]
4cc#
8.b[
48b]
12a#
12cc#
12ee
12cc#
12a#
=132
12b
12dd#
12cc#
12b
12aa
12gg#
12ff#
12ee
12dd#
12cc#
12b
12a
=133
12g#
12gg#
12ff#
12ee
12bb
12aa
12gg#
12ff#
12ee
12dd#
12cc#
12b
=134
12a
12dd#
12cc#
12b
12ff#
12ee
12dd#
12ff#
12gg#
12aa
12gg#
12ff#
=135
12gg#
12eee
12ddd#
12ccc#
12bb
12aa
12gg#
12ff#
12ee
12dd#
12ff#
12aa
=136
4gg#
2.r
=137
12gg#
12eee
12ddd#
12ccc#
12bb
12aa
12gg#
12ff#
12ee
12dd#
12ee
12ff#
=138
12ee
12gg#
12ff#
12ee
12gg#
12ff#
12ee
12dd#
12cc#
12b#
12cc#
12dd#
=139
12cc#
12gg#
12ff#
12ee
12dd#
12cc#
12b
12a#
12cc#
12ee
12cc#
12a#
=140
12b
12dd#
12b
12ee
12b
12ee
12ff#
12b
12ff#
12gg#
12b
12gg#
=141
12b
12aa
12aa
12aa
12aa
12aa
12b
12gg#
12gg#
12gg#
12gg#
12gg#
=142
12cc#
12ccc#
12ccc#
12ccc#
12ccc#
12ccc#
12dd#
12ddd#
12ddd#
12ee
12eee
12eee
=143
12bb
12aa#
12ccc#
12bb
12aa#
12ccc#
12bb
12aa#
12ccc#
12bb
12eee
12ee
=144
1ff#
=145
1ee[
=146
1ee]
=147
1ee#
=148
4ff#
4ccc#
4aa
4ff#
=149
2ee
8.ff#
16ee
8.ff#
16gg#
=150
1ee[
=151
1ee]
=152
2.ff
4fff
=153
4eee
4ccc
4gg
4ee
=154
4dd
4b
4g#
4ddd
=155
4ccc
4aa
4ee
4cc
=156
4a
8ccc
8bb
8aa
8gg
8ff#
8ee
=157
4dd#
4b
4b
4b
=158
1b
=159
1b
=160
1b[
=161
8b]
8cc#
8ee
8dd#
8ff#
8ee
8gg#
8ff#
=162
2.aa
4ff#
=163
8dd#
8ee
8gg#
8ff#
8aa
8gg#
8bb
8aa
=164
2ccc#
4aa
4ff#
=165
1dd#
=166
1ee[
=167
1ee]
=168
4ff
4ee
4gg
4ff
=169
4bb-
4aa
4gg
4ff
=170
1ee[
=171
4ee]
4ee
4ee
4ee
=172
2ee
4r
4g#
=173
4a
4b
4cc#
4b
=174
1aa
=175
4gg#
4ff#
4ee
4ff#
=176
2ee
4dd#
4g#
=177
4a
4b
4cc#
4b
=178
1aa
=179
4gg#
4ff#
4ee
8ff#
8dd#
=180
4ee
2r
12ee
12ff#
12ee
=181
12dd#
12ee
12dd#
12b
12cc#
12b
12a
12b
12a
12f#
12a
12d#
=182
12e
12g#
12b
12b
12b
12b
12b
12cc#
12dd#
12ee
12gg#
12ee
=183
12dd#
12ee
12dd#
12b
12cc#
12b
12a
12b
12a
12f#
12a
12d#
=184
4e
2r
12ee
12ff#
12ee
=185
12dd#
12ee
12dd#
12b
12cc#
12b
12a
12b
12a
12f#
12a
12d#
=186
12e
12g#
12b
12b
12b
12b
12b
12cc#
12dd#
12ee
12gg#
12ee
=187
12dd#
12ee
12dd#
12b
12cc#
12b
12a
12b
12a
12f#
12a
12d#
=188
4e
4r
2ee
=189
2ee
2r
==
*-
